icons/bookmark.svg

<svg width="24" height="24" viewBox="0 0 24 24" fill="none" xmlns="http://www.w3.org/2000/svg">
<path fill-rule="evenodd" clip-rule="evenodd" d="M7.01967 4.39723C7.52925 3.88765 8.22956 3.62756 9 3.62756H15C16.5142 3.62756 17.75 4.86335 17.75 6.37756V18.5776C17.75 19.9114 16.3639 20.8351 15.1279 20.1287L15.0521 20.0854L12.0531 17.2864C12.0195 17.2746 11.9805 17.2746 11.9469 17.2864L8.94791 20.0854L8.8721 20.1287C7.63607 20.8351 6.25 19.9114 6.25 18.5776V6.37756C6.25 5.60713 6.51009 4.90682 7.01967 4.39723ZM8.08033 5.45789C7.88991 5.64831 7.75 5.948 7.75 6.37756V18.5776C7.75 18.7165 7.81411 18.7984 7.87746 18.8369C7.92501 18.8659 7.98885 18.8819 8.06949 18.8535L11.033 16.0875L11.084 16.0535C11.6359 15.6856 12.3641 15.6856 12.916 16.0535L12.967 16.0875L15.9305 18.8535C16.0112 18.8819 16.075 18.8659 16.1225 18.8369C16.1859 18.7984 16.25 18.7165 16.25 18.5776V6.37756C16.25 5.69178 15.6858 5.12756 15 5.12756H9C8.57044 5.12756 8.27075 5.26748 8.08033 5.45789Z" fill="black"/>
</svg>

<svg xmlns="http://www.w3.org/2000/svg" fill="none" viewBox="0 0 24 24">
  <path fill="#000" fill-rule="evenodd" d="M7.02 4.397c.51-.51 1.21-.77 1.98-.77h6a2.756 2.756 0 0 1 2.75 2.75v12.2c0 1.334-1.386 2.258-2.622 1.552l-.076-.044-2.999-2.799a.164.164 0 0 0-.106 0l-3 2.8-.075.043c-1.236.706-2.622-.218-2.622-1.551v-12.2c0-.77.26-1.471.77-1.98Zm1.06 1.06c-.19.191-.33.491-.33.92v12.2c0 .14.064.221.127.26a.215.215 0 0 0 .192.017l2.964-2.767.051-.034a1.658 1.658 0 0 1 1.832 0l.051.034 2.963 2.767a.216.216 0 0 0 .192-.017c.064-.039.128-.12.128-.26v-12.2c0-.685-.564-1.25-1.25-1.25H9c-.43 0-.73.14-.92.33Z" clip-rule="evenodd"/>
</svg>
